X:359
T:Ramensky
C:Roddy MacMillan
D:Hamish Imlach, Before and After
Z:Nigel Gatherer
L:1/8
M:4/4
K:Em
B|G>EED E>EEB|G>EFD E3 B|e>eed B>BBA|G>GFD E3 B|
G>EED E>EEB|G>EFD E3 B|e>eed B>BBA|G>GFD E2||
GF|E2 ED E2 B,D|B2 dA B3 z|e>eed B>BBA|G>GFD E3|]
